X: 3631
T: Bill McEvoy's
R: reel
M: 4/4
K: Gmajor
d2 cA d~G3|DGBd gdBd|c/d/c Bd c~F3|CFAc fagf|
d/e/d cA d~G3|DGBd gd B/c/d|cFAc fage|1 fdcA G2 Ac:|2 fdcA G3 f||
|:~g3a bg a/g/f|gbag fddf|ec c/c/c gceg|fgag fdef|
~g3a bg a/g/f|gbag fddf|ecc/c/c gceg|1 fdcA G3 f:|2 fdcA G2 Ac||

